X: 8
T: The Trip To Birmingham
R: reel
M: 4/4
L: 1/8
K: Dmaj
|:DGGF G2 (3Bcd | e3d edBA | G3B dGBG | ABAG EGGE |
DGGF G2 (3Bcd | e3d efga | bg g2 ageg |dBAB G3:||
|:dggf g3a | bg g2 edBA | G3B dGBG | ABAG EG G2 |
dggf g3a | bg g2 edBA | G3B dGBG | AGFA G3e |
dggf g3a | bg g2 edBA | G3B dGBG | ABAG EG G2 |
dg g2 ag g2 | bg g2 edBA | G3B dGBG | AGFA G3 ||


Tune 1787	Setting 15233

